X:1
T:J. S. Bach
T:BWV 938 Little Prelude in E minor (A = 415 Hz)
T:Six Little Preludes No. 6
%%score { 1 | 2 }
L:1/8
M:3/8
K:G
V:1 treble nm="Harp"
V:2 bass 
V:1
 z/ E/G/B/G/E/ | eBe | ^d/B/d/f/d/B/ | bfb | g/f/e/d/c/B/ | A/c/e/g/f/e/ | f/e/d/c/B/A/ | %7
 G/B/d/=f/e/d/ | ef/4e/4f/g | d/4c/4d3/2 z | gg/4f/4g/4f/4g | a/b/c' z | bb/4a/4b/4a/4g | acB | %14
 gg/4f/4g/4f/4e | fAG | ef/e/d/^c/ | fg/f/e/d/ | ^c/e/d/c/B/^A/ | B/4^A/4B/- B2 | z/ E/G/B/G/E/ | %21
 eBe | ^d/B/d/f/d/B/ | bfb | g/f/e/d/c/B/ | A/c/e/g/f/e/ | f/e/d/c/B/A/ | G/B/d/=f/e/d/ | %28
 ef/4e/4f/g | d/4c/4d3/2 z | gg/4f/4g/4f/4g | a/b/c' z | bb/4a/4b/4a/4g | acB | gg/4f/4g/4f/4e | %35
 fAG | ef/e/d/^c/ | fg/f/e/d/ | ^c/e/d/c/B/^A/ | B/4^A/4B/- B2 | z/ ^D/F/A/F/D/ | cc/4B/4c/4B/4A- | %42
 A/^G/B/d/B/G/ | =fed- | d/c/B/A/a- | a/=f/g/a/d- | d/B/A/G/g- | g/e/=f/g/c- | c/=f/B/e/A/d/ | %49
 G/c/=F/B/E/A/ | ^G/A/c/B/A/G/ | A/4^G/4A3/2 z | z/ E/A/^G/A/c/ | F/c/E/c/D/c/ | B/D/G/F/G/B/ | %55
 E/B/D/B/C/B/ | A/G/F/A/E/A/ | ^D/A/E/A/F/A/ | G/B/e/^d/e/f/ | ^d/B/^c/d/e/f/ | g/f/g/e/a/e/ | %61
 f/c/B/A/G/B/ | e/d/e/c/f/c/ | d/A/G/F/E/G/ | c/E/^D/E/F/G/ | A/B/c/A/f- | f/B/e/g/f/^d/ | %67
 e/4^d/4e/- e2 | z/ ^D/F/A/F/D/ | cc/4B/4c/4B/4A- | A/^G/B/d/B/G/ | =fed- | d/c/B/A/a- | %73
 a/=f/g/a/d- | d/B/A/G/g- | g/e/=f/g/c- | c/=f/B/e/A/d/ | G/c/=F/B/E/A/ | ^G/A/c/B/A/G/ | %79
 A/4^G/4A3/2 z | z/ E/A/^G/A/c/ | F/c/E/c/D/c/ | B/D/G/F/G/B/ | E/B/D/B/C/B/ | A/G/F/A/E/A/ | %85
 ^D/A/E/A/F/A/ | G/B/e/^d/e/f/ | ^d/B/^c/d/e/f/ | g/f/g/e/a/e/ | f/c/B/A/G/B/ | e/d/e/c/f/c/ | %91
 d/A/G/F/E/G/ | c/E/^D/E/F/G/ | A/B/c/A/f- | f/B/e/g/f/^d/ | e/4^d/4e/- e2 |] %96
V:2
 E,/4D,/4E,/E,, z | z/ E,/G,/B,/G,/E,/ | B,/4A,/4B,/B,, z | z/ B,/^D/F/D/B,/ | EGE | CA,C | DFD | %7
 B,G,B, | C/B,/A,/C/G,/C/ | F,/C/E,/C/D,/C/ | B,/C/A,/C/G,/C/ | F,/C/E,/C/D,/C/ | %12
 G,/B,/F,/B,/E,/B,/ | F,/B,/E,/B,/^D,/B,/ | E,/B,/D,/B,/^C,/B,/ | D,/B,/^C,/B,/B,,/B,/ | %16
 ^C,/B,/D,/B,/E,/B,/ | D,/B,/E,/B,/F,/B,/ | G,E,F, | B,,/^D,/F,/A,/G,/F,/ | E,/4D,/4E,/E,, z | %21
 z/ E,/G,/B,/G,/E,/ | B,/4A,/4B,/B,, z | z/ B,/^D/F/D/B,/ | EGE | CA,C | DFD | B,G,B, | %28
 C/B,/A,/C/G,/C/ | F,/C/E,/C/D,/C/ | B,/C/A,/C/G,/C/ | F,/C/E,/C/D,/C/ | G,/B,/F,/B,/E,/B,/ | %33
 F,/B,/E,/B,/^D,/B,/ | E,/B,/D,/B,/^C,/B,/ | D,/B,/^C,/B,/B,,/B,/ | ^C,/B,/D,/B,/E,/B,/ | %37
 D,/B,/E,/B,/F,/B,/ | G,E,F, | B,,F,B, | B,/4A,/4B,/B,, z | z/ B,,/^D,/F,/D,/B,,/ | %42
 E,/4D,/4E,/E,, z | z/ E,/^G,/B,/G,/E,/ | A,/A,,/B,,/C,/D,/E,/ | =F,/D,/E,/F,/G,/A,/ | %46
 B,/G,/A,/B,/C/D/ | E/C/D/E/=F/G/ | AG=F | EDC | DEE, | A,/=F,/E,/D,/C,/B,,/ | A,,B,,C, | D,E,F, | %54
 G,,A,,B,, | C,D,E, | F,,G,,A,, | B,,^C,^D, | E,C,A,, | B,, z/ B,/^C/^D/ | EE/4D/4E/4D/4C | DF,E, | %62
 CC/4B,/4C/4B,/4A, | B,D,C, | A,B,/A,/G,/F,/ | E,/^D,/E,/D,/^C,/B,,/ | E,G,,B,, | %67
 E,,/B,,/E,/F,/G,/A,/ | B,/4A,/4B,/B,, z | z/ B,,/^D,/F,/D,/B,,/ | E,/4D,/4E,/E,, z | %71
 z/ E,/^G,/B,/G,/E,/ | A,/A,,/B,,/C,/D,/E,/ | =F,/D,/E,/F,/G,/A,/ | B,/G,/A,/B,/C/D/ | %75
 E/C/D/E/=F/G/ | AG=F | EDC | DEE, | A,/=F,/E,/D,/C,/B,,/ | A,,B,,C, | D,E,F, | G,,A,,B,, | %83
 C,D,E, | F,,G,,A,, | B,,^C,^D, | E,C,A,, | B,, z/ B,/^C/^D/ | EE/4D/4E/4D/4C | DF,E, | %90
 CC/4B,/4C/4B,/4A, | B,D,C, | A,B,/A,/G,/F,/ | E,/^D,/E,/D,/^C,/B,,/ | E,G,,B,, | E,,3 |] %96

